X: 23364
T: Leitrim Quickstep
R: slip jig
M: 9/8
K: Amajor
|:dfa afd dcd|Bcd efd cBA|dfa afd dcd|1 Bcd edc d2A:|2 Bcd edc d3||
|:ecA AcA edc|d2e fef fga|ecA AcA edc|1 d2f edc def:|2 d2f edc d (3ABc||

